public/svg/groups/music-movies-tv.svg

<svg xmlns="http://www.w3.org/2000/svg" version="1" viewBox="0 0 24 24">
  <path d="M 17.4375 2.15625 L 11.09375 6.4375 L 7.6875 3.28125 L 6.3125 4.71875 L 8.78125 7 L 4 7 C 2.9 7 2 7.9 2 9 L 2 20 C 2 21.1 2.9 22 4 22 L 20 22 C 21.1 22 22 21.1 22 20 L 22 9 C 22 7.9 21.1 7 20 7 L 13.84375 7 L 18.5625 3.84375 L 17.4375 2.15625 z M 8.25 9 C 8.7695312 8.9867187 9.35 9 10 9 C 15.3 9 16 9 16 14.5 C 16 20 15.2 20 10 20 C 4.8 20 4 19.9 4 14.5 C 4 9.775 4.6132812 9.0929688 8.25 9 z M 19 13 C 19.6 13 20 13.4 20 14 C 20 14.6 19.6 15 19 15 C 18.4 15 18 14.6 18 14 C 18 13.4 18.4 13 19 13 z M 19 17 C 19.6 17 20 17.4 20 18 C 20 18.6 19.6 19 19 19 C 18.4 19 18 18.6 18 18 C 18 17.4 18.4 17 19 17 z"></path>
</svg>

<svg xmlns="http://www.w3.org/2000/svg" version="1" viewBox="0 0 24 24"><path d="M17.438 2.156l-6.344 4.28-3.406-3.155-1.375 1.44L8.78 7H4c-1.1 0-2 .9-2 2v11c0 1.1.9 2 2 2h16c1.1 0 2-.9 2-2V9c0-1.1-.9-2-2-2h-6.156l4.72-3.156-1.127-1.688zM8.25 9c.52-.013 1.1 0 1.75 0 5.3 0 6 0 6 5.5s-.8 5.5-6 5.5-6-.1-6-5.5c0-4.725.613-5.407 4.25-5.5zM19 13c.6 0 1 .4 1 1s-.4 1-1 1-1-.4-1-1 .4-1 1-1zm0 4c.6 0 1 .4 1 1s-.4 1-1 1-1-.4-1-1 .4-1 1-1z"/></svg>
